X:1
T:Comin' Through The Rye
T:Comin' through the Rye
T:unknown
C:Unknown
Z:All Rights Reserved
L:1/8
M:4/4
K:C
V:1 treble 
%%MIDI program 4
V:1
"G" D3 D D B3 |"D7" A3 G A B3 | D D3 E3 D |"G" G6 z2 | D3 D d B3 |"D7" A3 G A B3 | D3 D E D3 | %7
w: If a bod- y|meet a bod- y|com- in' throught the|rye|If a bod- y|kiss a bod- y|need a bod- y|
"G" G6 z2 | d3 B G B3 |"D7" A3 G A B3 |"G" d3 B G3 d |"C" e4 z2 e2 |"G" d3 B"D7" c3 A | %13
w: cry|ev- ry las- sie|has her lad- die|Nane they say ha'e|I yet|a' the lads they|
"G" B3 G"D7" A3 B | D D3 E3 D |"G" G6 z2 | D3 D D B3 |"D7" A3 G A B3 | D D3 E3 D |"G" G6 z2 | %20
w: smile on me when|com- in' through the|rye.|If a bod- y|meet a bod- y|com- in' frae the|town|
 D3 D d B3 |"D7" A3 G A B3 | D3 D E D3 |"G" G6 z2 | d3 B G B3 |"D7" A3 G A B3 |"G" d3 B G3 d | %27
w: If a bod- y|greet a bod- y|need a bod- y|frown|Ev- ry las- sie|has a lad- die|Nane they say hae|
"C" e6 e2 |"G" d3 B"D7" c3 A |"G" B3 G"D7" A3 B | D D3 E3 D |"G" G6 z2 | z8 |] %33
w: I yet|a' the lads they|smile on me when|com- in' through the|rye.||

